X: 14
T: JIGS: Humours of Glendart Set
T: Humours of Glendart
C: C: Trad.; S: Various
C: Set Leaders: Mars, Sophie, Anton
Z: Mars Agliullin ed., Oleg Naumov arr.; Will Harmon / JACKB / Phantom Button at The Session
N: https://thesession.org/members/26966/sets/94272
R: Jig
M: 6/8
L: 1/8
Q: 3/8=116
K: Dmaj
|:"D"BAF AFD|FEF DFA|BAF AFD|"A"FED E2A|
"D"BAF AFD|"G"FEF DFA|"A"dcB AFE|"D"FDD D2A:||
|:"D (Bm)"def d2B|"D"AFA "G"AFA|"D (G)"def def|"A"ede fdB|
"D"def d2B|"G"AFA ABc|"Em (A)"dcB "A"AFE|"D"FDD D2A:||
T: Battering Ram
K: Gmaj
|:"G"dBG BAG|dBG G2B|dBG AGE|"C"GED "D"D2B|
"G"dBG BAG|"(G/B)"BdB BAG|"C"AGA BAB|1 "D"GED D2B:|2 "D"GED D2B||
|:"Am"deg "G/B"aga|"C"bge "G/B"edB|"Am"deg aga|"D"bge e2a|
"Em"bag age|"G/B"ged ege|"C"dBG AGE|1 "D"GED D2B:|2 "D"GED D2c||
|:"G"B2G A2G|"Em"B2D D2c|"Am"BAG AGE|"D"GED D2c|
"G/B"B2G A2G|"C"BdB BAG|"Am"AGA BAB|1 "D"GED D2c:|2 "D"GED D2B ||
T: Jimmy Ward's / Jim Ward's
K: Gmaj
|:"G"~G3 GAB|AGE "C"GED|"G/B"~G3 AGE|"D"GED DEF|
"G"~G3 GAB|"(Am)"AGE GAB|"C"cBA BGE|1 "D"DED DEF:|2 "D"DED D2B||
|:"Am"cBA BAG|ABA "D"AGE|"Am (C)"cBA BGE|"D"DED D2B|
"Am"cBA BAG|"D"~A3 ABc|"C"dcB "(G/B)"AGE|1 "Am"GED "D"D2B:|2 "Am"GED "D"DEF||

